flaticon/household/door.svg

<svg xmlns="http://www.w3.org/2000/svg" width="32" height="32" viewBox="0 0 24 24">
    <path d="M 20 21.800781 L 20 0.601562 C 20 0.59375 19.996094 0.585938 19.996094 0.582031 C 19.996094 0.5625 19.992188 0.542969 19.988281 0.523438 C 19.984375 0.503906 19.980469 0.484375 19.972656 0.464844 C 19.972656 0.457031 19.972656 0.453125 19.96875 0.445312 C 19.964844 0.433594 19.957031 0.425781 19.949219 0.414062 C 19.941406 0.394531 19.929688 0.378906 19.917969 0.363281 C 19.90625 0.347656 19.894531 0.332031 19.878906 0.320312 C 19.867188 0.304688 19.851562 0.292969 19.835938 0.28125 C 19.820312 0.269531 19.804688 0.257812 19.785156 0.25 C 19.773438 0.242188 19.765625 0.234375 19.753906 0.230469 C 19.746094 0.226562 19.742188 0.226562 19.734375 0.226562 C 19.714844 0.21875 19.699219 0.214844 19.679688 0.210938 C 19.65625 0.207031 19.636719 0.203125 19.617188 0.203125 C 19.613281 0.203125 19.605469 0.199219 19.601562 0.199219 L 4.398438 0.199219 C 4.394531 0.199219 4.386719 0.203125 4.382812 0.203125 C 4.363281 0.203125 4.339844 0.207031 4.320312 0.210938 C 4.300781 0.214844 4.28125 0.21875 4.265625 0.226562 C 4.257812 0.226562 4.253906 0.226562 4.246094 0.230469 C 4.234375 0.234375 4.226562 0.242188 4.214844 0.25 C 4.195312 0.257812 4.179688 0.269531 4.164062 0.28125 C 4.148438 0.292969 4.132812 0.304688 4.121094 0.320312 C 4.105469 0.332031 4.09375 0.347656 4.082031 0.363281 C 4.070312 0.378906 4.058594 0.394531 4.050781 0.414062 C 4.042969 0.425781 4.035156 0.433594 4.03125 0.445312 C 4.027344 0.453125 4.027344 0.460938 4.027344 0.464844 C 4.019531 0.484375 4.015625 0.503906 4.011719 0.523438 C 4.007812 0.542969 4.003906 0.5625 4.003906 0.582031 C 4.003906 0.585938 4 0.59375 4 0.601562 L 4 21.800781 L 0 21.800781 L 0 23.800781 L 24 23.800781 L 24 21.800781 Z M 18.632812 1 L 18.234375 1.398438 L 5.765625 1.398438 L 5.367188 1 Z M 0.800781 22.601562 L 4 22.601562 L 4 23 L 0.800781 23 Z M 5.199219 23 L 4.800781 23 L 4.800781 1.566406 L 5.199219 1.964844 Z M 6 2.199219 L 18 2.199219 L 18 23 L 6 23 Z M 19.199219 23 L 18.800781 23 L 18.800781 1.964844 L 19.199219 1.566406 Z M 23.199219 23 L 20 23 L 20 22.601562 L 23.199219 22.601562 Z M 23.199219 23"/>
    <path d="M 16.222656 11 L 15.378906 11 C 14.839844 11 14.398438 11.4375 14.398438 11.976562 L 14.398438 12.199219 L 13.800781 12.199219 C 13.25 12.199219 12.800781 12.648438 12.800781 13.199219 C 12.800781 13.75 13.25 14.199219 13.800781 14.199219 L 14.398438 14.199219 L 14.398438 14.421875 C 14.398438 14.960938 14.839844 15.398438 15.378906 15.398438 L 16.222656 15.398438 C 16.761719 15.398438 17.199219 14.960938 17.199219 14.421875 L 17.199219 11.976562 C 17.199219 11.4375 16.761719 11 16.222656 11 Z M 13.800781 13.398438 C 13.691406 13.398438 13.601562 13.308594 13.601562 13.199219 C 13.601562 13.089844 13.691406 13 13.800781 13 L 15.199219 13 L 15.199219 13.398438 Z M 16.398438 14.421875 C 16.398438 14.519531 16.320312 14.601562 16.222656 14.601562 L 15.378906 14.601562 C 15.28125 14.601562 15.199219 14.519531 15.199219 14.421875 L 15.199219 14.199219 L 16 14.199219 L 16 12.199219 L 15.199219 12.199219 L 15.199219 11.976562 C 15.199219 11.878906 15.28125 11.800781 15.378906 11.800781 L 16.222656 11.800781 C 16.320312 11.800781 16.398438 11.878906 16.398438 11.976562 Z M 16.398438 14.421875"/>
</svg>

<svg xmlns="http://www.w3.org/2000/svg" width="32" height="32" viewBox="0 0 24 24">
    <path d="M20 21.8V.603c0-.008-.004-.016-.004-.02 0-.02-.004-.039-.008-.059a.325.325 0 0 0-.015-.058c0-.008 0-.012-.004-.02-.004-.011-.012-.02-.02-.03a.221.221 0 0 0-.031-.052c-.012-.015-.023-.031-.04-.043-.01-.015-.026-.027-.042-.039-.016-.011-.031-.023-.05-.031-.013-.008-.02-.016-.032-.02-.008-.003-.012-.003-.02-.003A.288.288 0 0 0 19.68.21c-.024-.004-.043-.008-.063-.008-.004 0-.012-.004-.015-.004H4.398c-.003 0-.011.004-.015.004a.342.342 0 0 0-.117.024c-.008 0-.012 0-.02.003-.012.004-.02.012-.031.02-.02.008-.035.02-.05.031-.017.012-.032.024-.044.04-.016.011-.027.027-.039.042a.221.221 0 0 0-.031.051c-.008.012-.016.02-.02.031-.004.008-.004.016-.004.02a.325.325 0 0 0-.015.058.301.301 0 0 0-.008.059c0 .004-.004.012-.004.02V21.8H0v2h24v-2zM18.633 1l-.399.398H5.766L5.367 1zM.8 22.602H4V23H.8zM5.199 23h-.398V1.566l.398.399zM6 2.2h12V23H6zM19.2 23h-.4V1.965l.4-.399zm4 0H20v-.398h3.2zm0 0"/>
    <path d="M16.223 11h-.844a.98.98 0 0 0-.98.977v.222H13.8c-.551 0-1 .45-1 1 0 .551.449 1 1 1h.597v.223c0 .539.442.976.98.976h.845c.539 0 .976-.437.976-.976v-2.445a.977.977 0 0 0-.976-.977zM13.8 13.398a.2.2 0 0 1-.2-.199c0-.11.09-.199.2-.199h1.398v.398zm2.597 1.024c0 .098-.078.18-.175.18h-.844a.182.182 0 0 1-.18-.18v-.223H16v-2h-.8v-.222c0-.098.081-.176.179-.176h.844c.097 0 .175.078.175.176zm0 0"/>
</svg>
